svg/icon-urgent.svg

<svg viewBox="0 0 32 32" xmlns="http://www.w3.org/2000/svg"><path d="M29.8010699,7.94698603 C28.3741637,5.50246707 26.4386427,3.56688224 23.9940599,2.13997605 C21.5489022,0.713261477 18.8796806,0 15.984479,0 C13.0895329,0 10.4198004,0.713261477 7.97483433,2.13997605 C5.52999601,3.56662675 3.59447505,5.50221158 2.16763273,7.94698603 C0.740598802,10.3919521 0.0273373253,13.0618762 0.0273373253,15.9566307 C0.0273373253,18.8513852 0.740854291,21.5210539 2.16731337,23.9662754 C3.59415569,26.4103473 5.52974052,28.3463792 7.97451497,29.7732216 C10.419481,31.2 13.0892136,31.9132615 15.9841597,31.9132615 C18.8791058,31.9132615 21.5490938,31.2 23.9937405,29.7732216 C26.4383234,28.3466347 28.3738443,26.4107944 29.8007505,23.9662754 C31.2272735,21.5210539 31.9405349,18.8511297 31.9405349,15.9566307 C31.9405988,13.0618762 31.2273373,10.3915689 29.8010699,7.94698603 Z M18.6440559,25.9086307 C18.6440559,26.1027385 18.5813333,26.2651657 18.4567824,26.3968064 C18.3323593,26.5284471 18.1798323,26.5939162 17.999521,26.5939162 L14.0102515,26.5939162 C13.8303234,26.5939162 13.6709621,26.5248064 13.532487,26.3863313 C13.3938842,26.2478563 13.3247745,26.088495 13.3247745,25.9086307 L13.3247745,21.9611976 C13.3247745,21.7812056 13.3938842,21.6217804 13.532487,21.4833054 C13.6708982,21.3448942 13.8303234,21.2757844 14.0102515,21.2757844 L17.999521,21.2757844 C18.1798323,21.2757844 18.3326148,21.3416367 18.4567824,21.4728942 C18.5812695,21.604982 18.6440559,21.7672176 18.6440559,21.9612615 L18.6440559,25.9086307 Z M18.6022196,18.761517 C18.5881677,18.899992 18.5157365,19.0214132 18.384479,19.1250778 C18.2526467,19.2289341 18.0900918,19.2807984 17.8963034,19.2807984 L14.0524072,19.2807984 C13.8583633,19.2807984 13.6921677,19.2289341 13.5536926,19.1250778 C13.4150898,19.0214132 13.3457884,18.899992 13.3457884,18.761517 L12.9926387,5.85887425 C12.9926387,5.69242315 13.0617485,5.568 13.2002236,5.48483832 C13.3389541,5.3741477 13.5051497,5.31857884 13.6990659,5.31857884 L18.2704032,5.31857884 C18.464511,5.31857884 18.630515,5.37389222 18.76899,5.48483832 C18.9074651,5.56806387 18.9763194,5.69267864 18.9763194,5.85887425 L18.6022196,18.761517 Z" fill="currentColor" fill-rule="nonzero"/></svg>

<svg viewBox="0 0 32 32" xmlns="http://www.w3.org/2000/svg"><path d="M29.801 7.947a15.89 15.89 0 0 0-5.807-5.807C21.55.713 18.88 0 15.984 0c-2.894 0-5.564.713-8.01 2.14a15.885 15.885 0 0 0-5.806 5.807C.74 10.392.028 13.062.028 15.957c0 2.894.713 5.564 2.14 8.01a15.892 15.892 0 0 0 5.807 5.806c2.444 1.427 5.114 2.14 8.01 2.14 2.894 0 5.564-.713 8.009-2.14a15.888 15.888 0 0 0 5.807-5.807c1.426-2.445 2.14-5.115 2.14-8.01 0-2.894-.714-5.564-2.14-8.009zM18.644 25.909a.683.683 0 0 1-.187.488.605.605 0 0 1-.457.197h-3.99c-.18 0-.339-.07-.478-.208a.656.656 0 0 1-.207-.477V21.96c0-.18.069-.34.207-.478a.657.657 0 0 1 .478-.207H18c.18 0 .333.066.457.197a.685.685 0 0 1 .187.488v3.948zm-.042-7.147a.526.526 0 0 1-.218.363.764.764 0 0 1-.488.156h-3.844a.807.807 0 0 1-.498-.156c-.139-.104-.208-.225-.208-.363l-.353-12.903c0-.167.069-.291.207-.374a.775.775 0 0 1 .5-.166h4.57c.195 0 .36.055.499.166a.408.408 0 0 1 .207.374l-.374 12.903z" fill="currentColor" fill-rule="nonzero"/></svg>
